UI/Core-UI/SVG/undo_outline_24px.svg

<svg xmlns="http://www.w3.org/2000/svg" width="24" height="24" viewBox="0 0 24 24"><g style="opacity:0"><rect width="24" height="24" style="fill:none"/></g><path d="M15,7H6l3.5-3.46L8,2,2,8l6,6,1.5-1.5L6,9h9c3,0,5,1,5,5.5S18,20,15,20H6v2h9c4,0,7-2,7-7.55S19,7,15,7Z"/></svg>

<svg width="24" height="24" viewBox="0 0 24 24" fill="none" xmlns="http://www.w3.org/2000/svg">
<path d="M15 7H6L9.5 3.54L8 2L2 8L8 14L9.5 12.5L6 9H15C18 9 20 10 20 14.5C20 19 18 20 15 20H6V22H15C19 22 22 20 22 14.45C22 8.9 19 7 15 7Z" fill="#0F1621"/>
</svg>
